static/logo.svg

<svg height="48" viewBox="0 0 94 48" width="94" xmlns="http://www.w3.org/2000/svg" xmlns:xlink="http://www.w3.org/1999/xlink"><defs><linearGradient id="a"><stop offset="0" stop-color="#635bff"/><stop offset="1" stop-color="#00d4ff"/></linearGradient><linearGradient id="b" x1="81.70835%" x2="21.757914%" xlink:href="#a" y1="22.787797%" y2="81.560135%"/><path id="c" d="m26.4101562 44.8398438c11.1914063 0 20.4101563-9.2382813 20.4101563-20.4296876 0-11.1914062-9.2382813-20.4101562-20.4101563-20.4101562-11.1914062 0-20.4101562 9.21875-20.4101562 20.4101562 0 11.1914063 9.21875 20.4296876 20.4101562 20.4296876zm0-4.5898438c-8.7695312 0-15.8007812-7.0703125-15.8007812-15.8398438 0-8.7695312 7.0117188-15.82031245 15.8007812-15.82031245 8.7695313 0 15.8203126 7.05078125 15.8398438 15.82031245 0 8.7695313-7.0703125 15.8398438-15.8398438 15.8398438zm-.0195312-5.0195312c.5078125 0 .859375-.3515626.859375-.8789063v-1.25c3.3007812-.2929687 5.6835938-2.1484375 5.6835938-5.1171875 0-2.6757812-1.6992188-4.1992188-5.1171876-4.84375l-.5664062-.1171875v-4.4140625c1.1328125.1953125 1.9335938.859375 2.2851562 1.8945312.3320313.6835938.8203126 1.0546876 1.5625 1.0546876.8789063 0 1.4648438-.546875 1.4648438-1.3671876 0-.234375-.0585938-.46875-.1171875-.7226562-.5273437-1.9335938-2.4804687-3.3789062-5.1953125-3.6523438v-1.2695312c0-.5273438-.3515625-.8789062-.859375-.8789062-.4882812 0-.859375.3515624-.859375.8789062v1.2695312c-3.1640625.2929688-5.4101562 2.1875-5.4101562 4.9804688 0 2.5585938 1.6992187 4.0625 4.9414062 4.7851562l.46875.1171876v4.6484374c-1.4257812-.2148437-2.265625-.9570312-2.5585938-1.9921874-.3125-.7226563-.8007812-1.1132813-1.5429687-1.1132813-.9375 0-1.5039063.6054687-1.5039063 1.4648437 0 .234375.0390626.46875.1367188.7421876.546875 1.9140624 2.5585938 3.4179687 5.46875 3.6328124v1.2695313c0 .5273437.3710938.8789063.859375.8789063zm-.859375-12.6367188-.1171875-.0390625c-1.4453125-.4101563-2.109375-1.0351563-2.109375-1.9921875 0-.9960938.859375-1.7773438 2.2265625-1.9921875zm1.71875 7.7539062v-4.2382812l.3320312.078125c1.5625001.4101562 2.1484376 1.0351562 2.1484376 2.0507812 0 1.1328126-.8398438 1.9335938-2.4804688 2.109375z"/><filter id="d" height="144.7%" width="144.7%" x="-22.4%" y="-22.3%"><feMorphology in="SourceAlpha" operator="dilate" radius="0.125" result="shadowSpreadOuter1"/><feOffset dx="2" dy="2" in="shadowSpreadOuter1" result="shadowOffsetOuter1"/><feGaussianBlur in="shadowOffsetOuter1" result="shadowBlurOuter1" stdDeviation="2"/><feComposite in="shadowBlurOuter1" in2="SourceAlpha" operator="out" result="shadowBlurOuter1"/><feColorMatrix in="shadowBlurOuter1" result="shadowMatrixOuter1" type="matrix" values="0 0 0 0 0.780392157   0 0 0 0 0.780392157   0 0 0 0 0.8  0 0 0 1 0"/><feMorphology in="SourceAlpha" operator="dilate" radius="0.125" result="shadowSpreadOuter2"/><feOffset dx="-2" dy="-2" in="shadowSpreadOuter2" result="shadowOffsetOuter2"/><feGaussianBlur in="shadowOffsetOuter2" result="shadowBlurOuter2" stdDeviation="2"/><feComposite in="shadowBlurOuter2" in2="SourceAlpha" operator="out" result="shadowBlurOuter2"/><feColorMatrix in="shadowBlurOuter2" result="shadowMatrixOuter2" type="matrix" values="0 0 0 0 1   0 0 0 0 1   0 0 0 0 1  0 0 0 1 0"/><feMerge><feMergeNode in="shadowMatrixOuter1"/><feMergeNode in="shadowMatrixOuter2"/></feMerge></filter><filter id="e" height="139.8%" width="139.8%" x="-19.9%" y="-19.9%"><feGaussianBlur in="SourceAlpha" result="shadowBlurInner1" stdDeviation="1"/><feOffset dx="0" dy="2" in="shadowBlurInner1" result="shadowOffsetInner1"/><feComposite in="shadowOffsetInner1" in2="SourceAlpha" k2="-1" k3="1" operator="arithmetic" result="shadowInnerInner1"/><feColorMatrix in="shadowInnerInner1" type="matrix" values="0 0 0 0 0   0 0 0 0 0   0 0 0 0 0  0 0 0 0.16 0"/></filter><linearGradient id="f" x1="81.7387%" x2="-133.135574%" xlink:href="#a" y1="37.550949%" y2="78.498243%"/><path id="g" d="m62.0742188 33.4023438v-14.3671876h5.0507812v-2.5429687h-13.125v2.5429687h5.0625v14.3671876zm7.8164062-14.203125c.9140625 0 1.6171875-.7265626 1.6171875-1.59375 0-.890625-.703125-1.6054688-1.6171875-1.6054688s-1.6289062.7148438-1.6289062 1.6054688c0 .8671874.7148437 1.59375 1.6289062 1.59375zm1.453125 14.203125v-12.421875h-2.9179688v12.421875zm5.390625 4.1015624v-6.1992187h.0585938c.703125 1.453125 2.1210937 2.34375 3.890625 2.34375 3.1171874 0 5.109375-2.4609375 5.109375-6.4453125v-.0117188c0-4.0078124-1.9921876-6.46875-5.1445313-6.46875-1.78125 0-3.140625.9140626-3.8554687 2.4023438h-.0585938v-2.1445312h-2.9179688v16.5234374zm3.046875-6.3164062c-1.8046875 0-3.0703125-1.5585938-3.0703125-3.984375v-.0117188c0-2.4375 1.265625-4.0078124 3.0703125-4.0078124 1.8632812 0 3.0351562 1.5234374 3.0351562 4.0078124v.0117188c0 2.4492188-1.171875 3.984375-3.0351562 3.984375z"/><filter id="h" height="184.9%" width="157.4%" x="-28.7%" y="-42.4%"><feMorphology in="SourceAlpha" operator="dilate" radius="0.125" result="shadowSpreadOuter1"/><feOffset dx="2" dy="2" in="shadowSpreadOuter1" result="shadowOffsetOuter1"/><feGaussianBlur in="shadowOffsetOuter1" result="shadowBlurOuter1" stdDeviation="2"/><feComposite in="shadowBlurOuter1" in2="SourceAlpha" operator="out" result="shadowBlurOuter1"/><feColorMatrix in="shadowBlurOuter1" result="shadowMatrixOuter1" type="matrix" values="0 0 0 0 0.780392157   0 0 0 0 0.780392157   0 0 0 0 0.8  0 0 0 1 0"/><feMorphology in="SourceAlpha" operator="dilate" radius="0.125" result="shadowSpreadOuter2"/><feOffset dx="-2" dy="-2" in="shadowSpreadOuter2" result="shadowOffsetOuter2"/><feGaussianBlur in="shadowOffsetOuter2" result="shadowBlurOuter2" stdDeviation="2"/><feComposite in="shadowBlurOuter2" in2="SourceAlpha" operator="out" result="shadowBlurOuter2"/><feColorMatrix in="shadowBlurOuter2" result="shadowMatrixOuter2" type="matrix" values="0 0 0 0 1   0 0 0 0 1   0 0 0 0 1  0 0 0 1 0"/><feMerge><feMergeNode in="shadowMatrixOuter1"/><feMergeNode in="shadowMatrixOuter2"/></feMerge></filter><filter id="i" height="175.6%" width="151.1%" x="-25.6%" y="-37.8%"><feGaussianBlur in="SourceAlpha" result="shadowBlurInner1" stdDeviation="1"/><feOffset dx="0" dy="2" in="shadowBlurInner1" result="shadowOffsetInner1"/><feComposite in="shadowOffsetInner1" in2="SourceAlpha" k2="-1" k3="1" operator="arithmetic" result="shadowInnerInner1"/><feColorMatrix in="shadowInnerInner1" type="matrix" values="0 0 0 0 0   0 0 0 0 0   0 0 0 0 0  0 0 0 0.16 0"/></filter></defs><g fill="none" fill-rule="nonzero"><g><use fill="#000" filter="url(#d)" xlink:href="#c"/><use fill="#000" xlink:href="#c"/><use fill="url(#b)" xlink:href="#c"/><use fill="#000" filter="url(#e)" xlink:href="#c"/><use stroke="#f2f2f7" stroke-width=".25" xlink:href="#c"/></g><g><use fill="#000" filter="url(#h)" xlink:href="#g"/><use fill="#000" xlink:href="#g"/><use fill="url(#f)" xlink:href="#g"/><use fill="#000" filter="url(#i)" xlink:href="#g"/><use stroke="#f2f2f7" stroke-width=".25" xlink:href="#g"/></g></g></svg>

<?xml version="1.0" encoding="UTF-8"?>
<svg width="94px" height="48px" viewBox="0 0 94 48" version="1.1" xmlns="http://www.w3.org/2000/svg" xmlns:xlink="http://www.w3.org/1999/xlink">
    <title>logo</title>
    <defs>
        <linearGradient x1="81.7083499%" y1="22.7877972%" x2="21.7579138%" y2="81.5601345%" id="linearGradient-1">
            <stop stop-color="#635BFF" offset="0%"></stop>
            <stop stop-color="#00D4FF" offset="100%"></stop>
        </linearGradient>
        <path d="M26.4101562,44.8398438 C37.6015625,44.8398438 46.8203125,35.6015625 46.8203125,24.4101562 C46.8203125,13.21875 37.5820312,4 26.4101562,4 C15.21875,4 6,13.21875 6,24.4101562 C6,35.6015625 15.21875,44.8398438 26.4101562,44.8398438 Z M26.4101562,40.25 C17.640625,40.25 10.609375,33.1796875 10.609375,24.4101562 C10.609375,15.640625 17.6210938,8.58984375 26.4101562,8.58984375 C35.1796875,8.58984375 42.2304688,15.640625 42.25,24.4101562 C42.25,33.1796875 35.1796875,40.25 26.4101562,40.25 Z M26.390625,35.2304688 C26.8984375,35.2304688 27.25,34.8789062 27.25,34.3515625 L27.25,33.1015625 C30.5507812,32.8085938 32.9335938,30.953125 32.9335938,27.984375 C32.9335938,25.3085938 31.234375,23.7851562 27.8164062,23.140625 L27.25,23.0234375 L27.25,18.609375 C28.3828125,18.8046875 29.1835938,19.46875 29.5351562,20.5039062 C29.8671875,21.1875 30.3554688,21.5585938 31.0976562,21.5585938 C31.9765625,21.5585938 32.5625,21.0117188 32.5625,20.1914062 C32.5625,19.9570312 32.5039062,19.7226562 32.4453125,19.46875 C31.9179688,17.5351562 29.9648438,16.0898438 27.25,15.8164062 L27.25,14.546875 C27.25,14.0195312 26.8984375,13.6679688 26.390625,13.6679688 C25.9023438,13.6679688 25.53125,14.0195312 25.53125,14.546875 L25.53125,15.8164062 C22.3671875,16.109375 20.1210938,18.0039062 20.1210938,20.796875 C20.1210938,23.3554688 21.8203125,24.859375 25.0625,25.5820312 L25.53125,25.6992188 L25.53125,30.3476562 C24.1054688,30.1328125 23.265625,29.390625 22.9726562,28.3554688 C22.6601562,27.6328125 22.171875,27.2421875 21.4296875,27.2421875 C20.4921875,27.2421875 19.9257812,27.8476562 19.9257812,28.7070312 C19.9257812,28.9414062 19.9648438,29.1757812 20.0625,29.4492188 C20.609375,31.3632812 22.6210938,32.8671875 25.53125,33.0820312 L25.53125,34.3515625 C25.53125,34.8789062 25.9023438,35.2304688 26.390625,35.2304688 Z M25.53125,22.59375 L25.4140625,22.5546875 C23.96875,22.1445312 23.3046875,21.5195312 23.3046875,20.5625 C23.3046875,19.5664062 24.1640625,18.7851562 25.53125,18.5703125 L25.53125,22.59375 Z M27.25,30.3476562 L27.25,26.109375 L27.5820312,26.1875 C29.1445313,26.5976562 29.7304688,27.2226562 29.7304688,28.2382812 C29.7304688,29.3710938 28.890625,30.171875 27.25,30.3476562 Z" id="path-2"></path>
        <filter x="-22.4%" y="-22.3%" width="144.7%" height="144.7%" filterUnits="objectBoundingBox" id="filter-3">
            <feMorphology radius="0.125" operator="dilate" in="SourceAlpha" result="shadowSpreadOuter1"></feMorphology>
            <feOffset dx="2" dy="2" in="shadowSpreadOuter1" result="shadowOffsetOuter1"></feOffset>
            <feGaussianBlur stdDeviation="2" in="shadowOffsetOuter1" result="shadowBlurOuter1"></feGaussianBlur>
            <feComposite in="shadowBlurOuter1" in2="SourceAlpha" operator="out" result="shadowBlurOuter1"></feComposite>
            <feColorMatrix values="0 0 0 0 0.780392157   0 0 0 0 0.780392157   0 0 0 0 0.8  0 0 0 1 0" type="matrix" in="shadowBlurOuter1" result="shadowMatrixOuter1"></feColorMatrix>
            <feMorphology radius="0.125" operator="dilate" in="SourceAlpha" result="shadowSpreadOuter2"></feMorphology>
            <feOffset dx="-2" dy="-2" in="shadowSpreadOuter2" result="shadowOffsetOuter2"></feOffset>
            <feGaussianBlur stdDeviation="2" in="shadowOffsetOuter2" result="shadowBlurOuter2"></feGaussianBlur>
            <feComposite in="shadowBlurOuter2" in2="SourceAlpha" operator="out" result="shadowBlurOuter2"></feComposite>
            <feColorMatrix values="0 0 0 0 1   0 0 0 0 1   0 0 0 0 1  0 0 0 1 0" type="matrix" in="shadowBlurOuter2" result="shadowMatrixOuter2"></feColorMatrix>
            <feMerge>
                <feMergeNode in="shadowMatrixOuter1"></feMergeNode>
                <feMergeNode in="shadowMatrixOuter2"></feMergeNode>
            </feMerge>
        </filter>
        <filter x="-19.9%" y="-19.9%" width="139.8%" height="139.8%" filterUnits="objectBoundingBox" id="filter-4">
            <feGaussianBlur stdDeviation="1" in="SourceAlpha" result="shadowBlurInner1"></feGaussianBlur>
            <feOffset dx="0" dy="2" in="shadowBlurInner1" result="shadowOffsetInner1"></feOffset>
            <feComposite in="shadowOffsetInner1" in2="SourceAlpha" operator="arithmetic" k2="-1" k3="1" result="shadowInnerInner1"></feComposite>
            <feColorMatrix values="0 0 0 0 0   0 0 0 0 0   0 0 0 0 0  0 0 0 0.16 0" type="matrix" in="shadowInnerInner1"></feColorMatrix>
        </filter>
        <linearGradient x1="81.7387%" y1="37.5509489%" x2="-133.135574%" y2="78.4982433%" id="linearGradient-5">
            <stop stop-color="#635BFF" offset="0%"></stop>
            <stop stop-color="#00D4FF" offset="100%"></stop>
        </linearGradient>
        <path d="M62.0742188,33.4023438 L62.0742188,19.0351562 L67.125,19.0351562 L67.125,16.4921875 L54,16.4921875 L54,19.0351562 L59.0625,19.0351562 L59.0625,33.4023438 L62.0742188,33.4023438 Z M69.890625,19.1992188 C70.8046875,19.1992188 71.5078125,18.4726562 71.5078125,17.6054688 C71.5078125,16.7148438 70.8046875,16 69.890625,16 C68.9765625,16 68.2617188,16.7148438 68.2617188,17.6054688 C68.2617188,18.4726562 68.9765625,19.1992188 69.890625,19.1992188 Z M71.34375,33.4023438 L71.34375,20.9804688 L68.4257812,20.9804688 L68.4257812,33.4023438 L71.34375,33.4023438 Z M76.734375,37.5039062 L76.734375,31.3046875 L76.7929688,31.3046875 C77.4960938,32.7578125 78.9140625,33.6484375 80.6835938,33.6484375 C83.8007812,33.6484375 85.7929688,31.1875 85.7929688,27.203125 L85.7929688,27.1914062 C85.7929688,23.1835938 83.8007812,20.7226562 80.6484375,20.7226562 C78.8671875,20.7226562 77.5078125,21.6367188 76.7929688,23.125 L76.734375,23.125 L76.734375,20.9804688 L73.8164062,20.9804688 L73.8164062,37.5039062 L76.734375,37.5039062 Z M79.78125,31.1875 C77.9765625,31.1875 76.7109375,29.6289062 76.7109375,27.203125 L76.7109375,27.1914062 C76.7109375,24.7539062 77.9765625,23.1835938 79.78125,23.1835938 C81.6445312,23.1835938 82.8164062,24.7070312 82.8164062,27.1914062 L82.8164062,27.203125 C82.8164062,29.6523438 81.6445312,31.1875 79.78125,31.1875 Z" id="path-6"></path>
        <filter x="-28.7%" y="-42.4%" width="157.4%" height="184.9%" filterUnits="objectBoundingBox" id="filter-7">
            <feMorphology radius="0.125" operator="dilate" in="SourceAlpha" result="shadowSpreadOuter1"></feMorphology>
            <feOffset dx="2" dy="2" in="shadowSpreadOuter1" result="shadowOffsetOuter1"></feOffset>
            <feGaussianBlur stdDeviation="2" in="shadowOffsetOuter1" result="shadowBlurOuter1"></feGaussianBlur>
            <feComposite in="shadowBlurOuter1" in2="SourceAlpha" operator="out" result="shadowBlurOuter1"></feComposite>
            <feColorMatrix values="0 0 0 0 0.780392157   0 0 0 0 0.780392157   0 0 0 0 0.8  0 0 0 1 0" type="matrix" in="shadowBlurOuter1" result="shadowMatrixOuter1"></feColorMatrix>
            <feMorphology radius="0.125" operator="dilate" in="SourceAlpha" result="shadowSpreadOuter2"></feMorphology>
            <feOffset dx="-2" dy="-2" in="shadowSpreadOuter2" result="shadowOffsetOuter2"></feOffset>
            <feGaussianBlur stdDeviation="2" in="shadowOffsetOuter2" result="shadowBlurOuter2"></feGaussianBlur>
            <feComposite in="shadowBlurOuter2" in2="SourceAlpha" operator="out" result="shadowBlurOuter2"></feComposite>
            <feColorMatrix values="0 0 0 0 1   0 0 0 0 1   0 0 0 0 1  0 0 0 1 0" type="matrix" in="shadowBlurOuter2" result="shadowMatrixOuter2"></feColorMatrix>
            <feMerge>
                <feMergeNode in="shadowMatrixOuter1"></feMergeNode>
                <feMergeNode in="shadowMatrixOuter2"></feMergeNode>
            </feMerge>
        </filter>
        <filter x="-25.6%" y="-37.8%" width="151.1%" height="175.6%" filterUnits="objectBoundingBox" id="filter-8">
            <feGaussianBlur stdDeviation="1" in="SourceAlpha" result="shadowBlurInner1"></feGaussianBlur>
            <feOffset dx="0" dy="2" in="shadowBlurInner1" result="shadowOffsetInner1"></feOffset>
            <feComposite in="shadowOffsetInner1" in2="SourceAlpha" operator="arithmetic" k2="-1" k3="1" result="shadowInnerInner1"></feComposite>
            <feColorMatrix values="0 0 0 0 0   0 0 0 0 0   0 0 0 0 0  0 0 0 0.16 0" type="matrix" in="shadowInnerInner1"></feColorMatrix>
        </filter>
    </defs>
    <g id="logo" stroke="none" stroke-width="1" fill="none" fill-rule="evenodd">
        <g fill-rule="nonzero">
            <use fill="black" fill-opacity="1" filter="url(#filter-3)" xlink:href="#path-2"></use>
            <use fill="#000000" xlink:href="#path-2"></use>
            <use fill="url(#linearGradient-1)" xlink:href="#path-2"></use>
            <use fill="black" fill-opacity="1" filter="url(#filter-4)" xlink:href="#path-2"></use>
            <use stroke="#F2F2F7" stroke-width="0.25" xlink:href="#path-2"></use>
        </g>
        <g id="Tip" fill-rule="nonzero">
            <use fill="black" fill-opacity="1" filter="url(#filter-7)" xlink:href="#path-6"></use>
            <use fill="#000000" xlink:href="#path-6"></use>
            <use fill="url(#linearGradient-5)" xlink:href="#path-6"></use>
            <use fill="black" fill-opacity="1" filter="url(#filter-8)" xlink:href="#path-6"></use>
            <use stroke="#F2F2F7" stroke-width="0.25" xlink:href="#path-6"></use>
        </g>
    </g>
</svg>
